X:1
T:Joyful Sound, LM
T:Joyful Sound, LM
T:Daniel Brink Towner, 1894
T:Public Domain Courtesy of the Cyber Hymnal™
C:Daniel Brink Towner, 1894
Z:Public Domain
Z:Courtesy of the Cyber Hymnal™
%%score ( 1 2 ) ( 3 4 )
L:1/8
Q:1/4=110
M:4/4
K:F
V:1 treble 
V:2 treble 
V:3 bass 
V:4 bass 
V:1
 [CF]2 CC [CF]2 [EG]2 | [FA]2 [GB]2 [Ac]4 | [Fd]2 [Fc][Fc] [EB]2 [FA]2 | %3
 [Ac]2 [GB]2 ([FA]2 [CG]2) | [CF][CF]CC [CF]2 [EG]2 | [FA]2 [GB]2 !fermata![Ac]2 [Fd]>[Ge] | %6
 [Af]4 [Ac]2 F>[FA] | [EG]4 F4 |] %8
V:2
 x2 CC x4 | x8 | x8 | x8 | x2 CC x4 | x8 | x6 F3/2 x/ | x4 F4 |] %8
V:3
 [F,A,]2 [F,A,][F,A,] [F,A,]2 [C,C]2 | [F,C]2 [F,C]2 [F,F]4 | [B,F]2 [A,C][A,C] [G,C]2 [F,C]2 | %3
 [C,C]2 [C,C]2 (C2 B,2) | [F,A,][F,A,][F,A,][F,A,] [F,A,]2 [C,C]2 | %5
 [F,C]2 [F,C]2 [F,F]2 [B,F]>[G,C] | [F,C]4 [F,F]2 [F,A,]>[F,C] | (C2 B,2) [F,A,]4 |] %8
V:4
 x8 | x8 | x8 | x4 C,4 | x8 | x8 | x8 | C,4 x4 |] %8

